ultrasound/ui/components/svgs/snx-header-mobile.svg

<svg width="43" height="30" viewBox="0 0 43 30" fill="none" xmlns="http://www.w3.org/2000/svg">
<path d="M10.1926 6.9901C9.89768 6.65016 9.53453 6.47979 9.1024 6.47979H0.264826C0.18633 6.47979 0.122105 6.45476 0.073739 6.40469C0.0245797 6.35544 0 6.29973 0 6.23997V0.239813C0 0.180061 0.0245797 0.125155 0.073739 0.0750929C0.122105 0.0250309 0.18633 0 0.264826 0H9.60351C11.96 0 13.993 0.970555 15.7016 2.91005L17.9701 5.69979L13.5513 11.1299L10.1926 6.9901ZM26.5135 2.88017C28.2222 0.960058 30.2647 0 32.641 0H41.9504C42.0288 0 42.0875 0.0201863 42.1272 0.0597513C42.166 0.100124 42.1858 0.159875 42.1858 0.239813V6.23997C42.1858 6.29973 42.166 6.35544 42.1272 6.40469C42.0875 6.45476 42.0288 6.47979 41.9504 6.47979H33.1128C32.6806 6.47979 32.3175 6.65016 32.0225 6.9901L25.5121 14.9701L32.0519 23.0099C32.3468 23.3305 32.6997 23.4903 33.1128 23.4903H41.9504C42.0288 23.4903 42.0875 23.5154 42.1272 23.5654C42.166 23.6155 42.1858 23.6809 42.1858 23.76V29.7602C42.1858 29.8199 42.166 29.8757 42.1272 29.9249C42.0875 29.975 42.0288 30 41.9504 30H32.641C30.2647 30 28.2317 29.0303 26.5429 27.09L21.1227 20.4301L15.7016 27.09C13.993 29.0303 11.9505 30 9.57418 30H0.264826C0.18633 30 0.126863 29.975 0.0880111 29.9249C0.0483664 29.8748 0.029337 29.8103 0.029337 29.7295V23.7293C0.029337 23.6696 0.0483664 23.6147 0.0880111 23.5646C0.126863 23.5146 0.18633 23.4895 0.264826 23.4895H9.1024C9.51471 23.4895 9.87785 23.32 10.1926 22.9792L16.5849 15.1195L26.5135 2.88017Z" fill="#00D1FF"/>
</svg>

<svg width="43" height="30" fill="none" viewBox="0 0 43 30" xmlns="http://www.w3.org/2000/svg">
  <path fill="#00D1FF" d="M10.193 6.99q-.442-.51-1.09-.51H.264a.25.25 0 0 1-.191-.075A.23.23 0 0 1 0 6.24v-6Q0 .15.074.075A.25.25 0 0 1 .264 0h9.34q3.534 0 6.098 2.91L17.97 5.7l-4.419 5.43zm16.32-4.11Q29.078 0 32.642 0h9.31q.117 0 .176.06t.059.18v6q0 .09-.059.165-.06.075-.177.075h-8.837q-.648 0-1.09.51l-6.51 7.98 6.539 8.04q.442.48 1.06.48h8.838q.118 0 .177.075a.3.3 0 0 1 .059.195v6q0 .09-.059.165-.06.075-.177.075h-9.309q-3.565 0-6.098-2.91l-5.42-6.66-5.421 6.66Q13.139 30 9.574 30H.264q-.117 0-.176-.075a.3.3 0 0 1-.059-.195v-6q0-.09.059-.165t.177-.076h8.837q.62 0 1.09-.51l6.393-7.86z"/>
</svg>
